plasma/desktoptheme/Materia/icons/slc.svg

<svg xmlns="http://www.w3.org/2000/svg" width="32" height="32" version="1.1">
 <g id="22-22-slc-like" transform="translate(31,-23)">
  <rect style="opacity:0.001" width="22" height="22" x="1" y="1"/>
  <path style="fill:#dfdfdf" d="M 8,4 C 5.2385763,4 3,6.2385763 3,9 c 0,5 7,9 9,11 2,-2 9,-6 9,-11 C 21,6.2385763 18.761424,4 16,4 14.360405,4 12.911811,4.7807653 12,6 11.088189,4.7807653 9.6395954,4 8,4 Z"/>
 </g>
 <g id="22-22-slc-share" transform="translate(31,9)">
  <rect style="opacity:0.001" width="22" height="22" x="1" y="1"/>
  <path style="fill:#dfdfdf" d="m 18,4 c -1.656854,0 -3,1.3431458 -3,3 0,0.087382 0.02393,0.1645141 0.03125,0.25 l -6.75,2.8125 C 7.730971,9.4152177 6.9161429,9 6,9 4.3431458,9 3,10.343146 3,12 c 0,1.656854 1.3431458,3 3,3 0.9161429,0 1.730971,-0.415218 2.28125,-1.0625 l 6.75,2.8125 C 15.023929,16.835486 15,16.912618 15,17 c 0,1.656854 1.343146,3 3,3 1.656854,0 3,-1.343146 3,-3 0,-1.656854 -1.343146,-3 -3,-3 -0.916143,0 -1.730971,0.415218 -2.28125,1.0625 L 8.96875,12.25 C 8.9760708,12.164514 9,12.087382 9,12 9,11.912618 8.9760708,11.835486 8.96875,11.75 l 6.75,-2.8125 C 16.269029,9.5847823 17.083857,10 18,10 19.656854,10 21,8.6568542 21,7 21,5.3431458 19.656854,4 18,4 Z m 0,2 c 0.552285,0 1,0.4477153 1,1 0,0.5522847 -0.447715,1 -1,1 C 17.447715,8 17,7.5522847 17,7 17,6.4477153 17.447715,6 18,6 Z M 6,11 c 0.5522847,0 1,0.447715 1,1 0,0.552285 -0.4477153,1 -1,1 -0.5522847,0 -1,-0.447715 -1,-1 0,-0.552285 0.4477153,-1 1,-1 z m 12,5 c 0.552285,0 1,0.447715 1,1 0,0.552285 -0.447715,1 -1,1 -0.552285,0 -1,-0.447715 -1,-1 0,-0.552285 0.447715,-1 1,-1 z"/>
 </g>
 <g id="22-22-slc-connect" transform="translate(31,-55)">
  <rect style="opacity:0.001" width="22" height="22" x="1" y="1"/>
  <path style="fill:#dfdfdf" d="M 14,4 C 13.221497,4.7785032 13.063294,6.1686877 13.96875,7.6875 L 9.7187499,10.53125 C 9.1903432,10.318042 8.6231562,10.159067 8.0624999,10.15625 7.3337401,10.15255 6.6249999,10.375 5.9999999,11 l 3,3 -4,4 -1,2 2,-1 4,-4 L 13,18 c 1.106964,-1.106964 0.964749,-2.507767 0.46875,-3.71875 l 2.84375,-4.25 C 17.831312,10.936706 19.221497,10.778503 20,10 Z"/>
 </g>
 <g id="slc-like" transform="translate(0,-32)">
  <rect style="opacity:0.001" width="32" height="32" x="0" y="0"/>
  <path style="opacity:0.2" d="M 9.9570312,3 C 5.5629266,3 2,7.1162801 2,12.193359 c 0,1.364118 0.2089286,2.676126 0.5742188,3.929688 0,0 0.3315681,1.131263 0.625,1.753906 C 6.5528776,25.837929 16,31 16,31 c 0,0 9.447122,-5.162071 12.800781,-13.123047 0.293432,-0.622643 0.625,-1.753906 0.625,-1.753906 C 29.791071,14.869485 30,13.557477 30,12.193359 30,7.1162801 26.437073,3 22.042969,3 19.738504,3 17.453413,4.1910383 16,6 14.546587,4.1910383 12.261496,3 9.9570312,3 Z"/>
  <path style="fill:#c2352a" d="M 9.9570312,2 C 5.5629266,2 2,6.1162801 2,11.193359 c 0,1.364118 0.2089286,2.676126 0.5742188,3.929688 0,0 0.3315681,1.131263 0.625,1.753906 C 6.5528776,24.837929 16,30 16,30 c 0,0 9.447122,-5.162071 12.800781,-13.123047 0.293432,-0.622643 0.625,-1.753906 0.625,-1.753906 C 29.791071,13.869485 30,12.557477 30,11.193359 30,6.1162801 26.437073,2 22.042969,2 19.738504,2 17.453413,3.1910383 16,5 14.546587,3.1910383 12.261496,2 9.9570312,2 Z"/>
  <path style="opacity:0.2;fill:#ffffff" d="M 9.9570312,2 C 5.5629267,2 2,6.1162805 2,11.193359 2,11.372076 2.012477,11.547696 2.019531,11.724609 2.2322298,6.8668695 5.699945,3 9.9570312,3 12.261496,3 14.546587,4.1910383 16,6 c 1.453413,-1.8089617 3.738504,-3 6.042969,-3 4.257085,0 7.724801,3.8668695 7.9375,8.724609 C 29.987523,11.547696 30,11.372076 30,11.193359 30,6.1162805 26.437073,2 22.042969,2 19.738504,2 17.453413,3.1910383 16,5 14.546587,3.1910383 12.261496,2 9.9570312,2 Z"/>
 </g>
 <g id="slc-share">
  <rect style="opacity:0.001" width="32" height="32" x="0" y="0"/>
  <circle style="opacity:0.2" cx="16" cy="17" r="14"/>
  <circle style="fill:#3aa3ec" cx="16" cy="16" r="14"/>
  <path style="opacity:0.2" d="m 22,9 c -1.656854,0 -3,1.343146 -3,3 0,0.08738 0.02393,0.164514 0.03125,0.25 l -6.75,2.8125 C 11.730971,14.415218 10.916143,14 10,14 c -1.656854,0 -3,1.343146 -3,3 0,1.656854 1.343146,3 3,3 0.916143,0 1.730971,-0.415218 2.28125,-1.0625 l 6.75,2.8125 C 19.02395,21.83549 19,21.912618 19,22 c 0,1.656854 1.343146,3 3,3 1.656854,0 3,-1.343146 3,-3 0,-1.656854 -1.343146,-3 -3,-3 -0.916143,0 -1.730971,0.415218 -2.28125,1.0625 l -6.75,-2.8125 C 12.97605,17.16451 13,17.087382 13,17 13,16.91262 12.97607,16.835486 12.96875,16.75 l 6.75,-2.8125 C 20.269029,14.584782 21.083857,15 22,15 c 1.656854,0 3,-1.343146 3,-3 0,-1.656854 -1.343146,-3 -3,-3 z m 0,2 c 0.552285,0 1,0.447715 1,1 0,0.552285 -0.447715,1 -1,1 -0.552285,0 -1,-0.447715 -1,-1 0,-0.552285 0.447715,-1 1,-1 z m -12,5 c 0.552285,0 1,0.447715 1,1 0,0.552285 -0.447715,1 -1,1 -0.552285,0 -1,-0.447715 -1,-1 0,-0.552285 0.447715,-1 1,-1 z m 12,5 c 0.552285,0 1,0.447715 1,1 0,0.552285 -0.447715,1 -1,1 -0.552285,0 -1,-0.447715 -1,-1 0,-0.552285 0.447715,-1 1,-1 z"/>
  <path style="fill:#ffffff" d="m 22,8 c -1.656854,0 -3,1.343146 -3,3 0,0.08738 0.02393,0.164514 0.03125,0.25 l -6.75,2.8125 C 11.730971,13.415218 10.916143,13 10,13 c -1.656854,0 -3,1.343146 -3,3 0,1.656854 1.343146,3 3,3 0.916143,0 1.730971,-0.415218 2.28125,-1.0625 l 6.75,2.8125 C 19.02395,20.83549 19,20.912618 19,21 c 0,1.656854 1.343146,3 3,3 1.656854,0 3,-1.343146 3,-3 0,-1.656854 -1.343146,-3 -3,-3 -0.916143,0 -1.730971,0.415218 -2.28125,1.0625 l -6.75,-2.8125 C 12.97605,16.16451 13,16.087382 13,16 13,15.91262 12.97607,15.835486 12.96875,15.75 l 6.75,-2.8125 C 20.269029,13.584782 21.083857,14 22,14 c 1.656854,0 3,-1.343146 3,-3 0,-1.656854 -1.343146,-3 -3,-3 z m 0,2 c 0.552285,0 1,0.447715 1,1 0,0.552285 -0.447715,1 -1,1 -0.552285,0 -1,-0.447715 -1,-1 0,-0.552285 0.447715,-1 1,-1 z m -12,5 c 0.552285,0 1,0.447715 1,1 0,0.552285 -0.447715,1 -1,1 -0.552285,0 -1,-0.447715 -1,-1 0,-0.552285 0.447715,-1 1,-1 z m 12,5 c 0.552285,0 1,0.447715 1,1 0,0.552285 -0.447715,1 -1,1 -0.552285,0 -1,-0.447715 -1,-1 0,-0.552285 0.447715,-1 1,-1 z"/>
  <path style="opacity:0.2;fill:#ffffff" d="M 16,2 A 14,14 0 0 0 2,16 14,14 0 0 0 2.0214844,16.585938 14,14 0 0 1 16,3 14,14 0 0 1 29.978516,16.414062 14,14 0 0 0 30,16 14,14 0 0 0 16,2 Z"/>
 </g>
 <g id="slc-connect" transform="translate(0,-64)">
  <rect style="opacity:0.001" width="32" height="32" x="0" y="0"/>
  <g>
   <rect style="opacity:0.2" width="28" height="28" x="-31" y="-30" rx="2.1" ry="2.1" transform="matrix(0,-1,-1,0,0,0)"/>
   <rect style="fill:#70c74d" width="28" height="28" x="-30" y="-30" rx="2.1" ry="2.1" transform="matrix(0,-1,-1,0,0,0)"/>
   <path style="opacity:0.2;fill:#ffffff" d="M 4.0996094,2 C 2.9361887,2 2,2.9361887 2,4.0996094 v 1 C 2,3.9361887 2.9361887,3 4.0996094,3 H 27.900391 C 29.063811,3 30,3.9361887 30,5.0996094 v -1 C 30,2.9361887 29.063811,2 27.900391,2 Z"/>
  </g>
  <path style="opacity:0.2" d="m 18,9 c -0.778503,0.778503 -0.936706,2.168688 -0.03125,3.6875 l -4.25,2.84375 C 13.190343,15.318042 12.623156,15.159067 12.0625,15.15625 11.33374,15.15255 10.625,15.375 10,16 l 3,3 -4,4 -1,2 2,-1 4,-4 3,3 c 1.106964,-1.106964 0.964749,-2.507767 0.46875,-3.71875 l 2.84375,-4.25 C 21.831312,15.936706 23.221497,15.778503 24,15 Z"/>
  <path style="fill:#ffffff" d="m 18,8 c -0.778503,0.778503 -0.936706,2.168688 -0.03125,3.6875 l -4.25,2.84375 C 13.190343,14.318042 12.623156,14.159067 12.0625,14.15625 11.33374,14.15255 10.625,14.375 10,15 l 3,3 -4,4 -1,2 2,-1 4,-4 3,3 c 1.106964,-1.106964 0.964749,-2.507767 0.46875,-3.71875 l 2.84375,-4.25 C 21.831312,14.936706 23.221497,14.778503 24,14 Z"/>
 </g>
</svg>

<?xml version="1.0" encoding="UTF-8"?>
<svg width="32" height="32" version="1.1" xmlns="http://www.w3.org/2000/svg">
 <g id="22-22-slc-like" transform="translate(31,-23)">
  <rect x="1" y="1" width="22" height="22" opacity=".001"/>
  <path d="m8 4c-2.7614 0-5 2.2386-5 5 0 5 7 9 9 11 2-2 9-6 9-11 0-2.7614-2.2386-5-5-5-1.6396 0-3.0882 0.78077-4 2-0.91181-1.2192-2.3604-2-4-2z" fill="#dfdfdf"/>
 </g>
 <g id="22-22-slc-share" transform="translate(31,9)">
  <rect x="1" y="1" width="22" height="22" opacity=".001"/>
  <path d="m18 4c-1.6569 0-3 1.3431-3 3 0 0.087382 0.02393 0.16451 0.03125 0.25l-6.75 2.8125c-0.55028-0.64728-1.3651-1.0625-2.2812-1.0625-1.6569 0-3 1.3431-3 3s1.3431 3 3 3c0.91614 0 1.731-0.41522 2.2812-1.0625l6.75 2.8125c-0.007321 0.085486-0.03125 0.16262-0.03125 0.25 0 1.6569 1.3431 3 3 3s3-1.3431 3-3-1.3431-3-3-3c-0.91614 0-1.731 0.41522-2.2812 1.0625l-6.75-2.8125c0.0073208-0.085486 0.03125-0.16262 0.03125-0.25s-0.023929-0.16451-0.03125-0.25l6.75-2.8125c0.55028 0.64728 1.3651 1.0625 2.2812 1.0625 1.6569 0 3-1.3431 3-3s-1.3431-3-3-3zm0 2c0.55228 0 1 0.44772 1 1s-0.44772 1-1 1-1-0.44772-1-1 0.44772-1 1-1zm-12 5c0.55228 0 1 0.44772 1 1s-0.44772 1-1 1-1-0.44772-1-1 0.44772-1 1-1zm12 5c0.55228 0 1 0.44772 1 1s-0.44772 1-1 1-1-0.44772-1-1 0.44772-1 1-1z" fill="#dfdfdf"/>
 </g>
 <g id="22-22-slc-connect" transform="translate(31,-55)">
  <rect x="1" y="1" width="22" height="22" opacity=".001"/>
  <path d="m14 4c-0.7785 0.7785-0.93671 2.1687-0.03125 3.6875l-4.25 2.8438c-0.52841-0.21321-1.0956-0.37218-1.6562-0.375-0.72876-0.0037-1.4375 0.21875-2.0625 0.84375l3 3-4 4-1 2 2-1 4-4 3 3c1.107-1.107 0.96475-2.5078 0.46875-3.7188l2.8438-4.25c1.5188 0.90546 2.909 0.74725 3.6875-0.03125z" fill="#dfdfdf"/>
 </g>
 <g id="slc-like" transform="translate(0,-32)">
  <rect width="32" height="32" opacity=".001"/>
  <path d="m9.957 3c-4.3941 0-7.957 4.1163-7.957 9.1934 0 1.3641 0.20893 2.6761 0.57422 3.9297 0 0 0.33157 1.1313 0.625 1.7539 3.3537 7.961 12.801 13.123 12.801 13.123s9.4471-5.1621 12.801-13.123c0.29343-0.62264 0.625-1.7539 0.625-1.7539 0.36529-1.2536 0.57422-2.5656 0.57422-3.9297 0-5.0771-3.5629-9.1934-7.957-9.1934-2.3045 0-4.5896 1.191-6.043 3-1.4534-1.809-3.7385-3-6.043-3z" opacity=".2"/>
  <path d="m9.957 2c-4.3941 0-7.957 4.1163-7.957 9.1934 0 1.3641 0.20893 2.6761 0.57422 3.9297 0 0 0.33157 1.1313 0.625 1.7539 3.3537 7.961 12.801 13.123 12.801 13.123s9.4471-5.1621 12.801-13.123c0.29343-0.62264 0.625-1.7539 0.625-1.7539 0.36529-1.2536 0.57422-2.5656 0.57422-3.9297 0-5.0771-3.5629-9.1934-7.957-9.1934-2.3045 0-4.5896 1.191-6.043 3-1.4534-1.809-3.7385-3-6.043-3z" fill="#c2352a"/>
  <path d="m9.957 2c-4.3941 0-7.957 4.1163-7.957 9.1934 0 0.17872 0.012477 0.35434 0.019531 0.53125 0.2127-4.8577 3.6804-8.7246 7.9375-8.7246 2.3045 0 4.5896 1.191 6.043 3 1.4534-1.809 3.7385-3 6.043-3 4.2571 0 7.7248 3.8669 7.9375 8.7246 0.007054-0.17691 0.019531-0.35253 0.019531-0.53125 0-5.0771-3.5629-9.1934-7.957-9.1934-2.3045 0-4.5896 1.191-6.043 3-1.4534-1.809-3.7385-3-6.043-3z" fill="#fff" opacity=".2"/>
 </g>
 <g id="slc-share">
  <rect width="32" height="32" opacity=".001"/>
  <circle cx="16" cy="17" r="14" opacity=".2"/>
  <circle cx="16" cy="16" r="14" fill="#3aa3ec"/>
  <path d="m22 9c-1.6569 0-3 1.3431-3 3 0 0.08738 0.02393 0.16451 0.03125 0.25l-6.75 2.8125c-0.55028-0.64728-1.3651-1.0625-2.2812-1.0625-1.6569 0-3 1.3431-3 3s1.3431 3 3 3c0.91614 0 1.731-0.41522 2.2812-1.0625l6.75 2.8125c-0.0073 0.08549-0.03125 0.16262-0.03125 0.25 0 1.6569 1.3431 3 3 3s3-1.3431 3-3-1.3431-3-3-3c-0.91614 0-1.731 0.41522-2.2812 1.0625l-6.75-2.8125c0.0073-0.08549 0.03125-0.16262 0.03125-0.25 0-0.08738-0.02393-0.16451-0.03125-0.25l6.75-2.8125c0.55028 0.64728 1.3651 1.0625 2.2812 1.0625 1.6569 0 3-1.3431 3-3s-1.3431-3-3-3zm0 2c0.55228 0 1 0.44772 1 1s-0.44772 1-1 1-1-0.44772-1-1 0.44772-1 1-1zm-12 5c0.55228 0 1 0.44772 1 1s-0.44772 1-1 1-1-0.44772-1-1 0.44772-1 1-1zm12 5c0.55228 0 1 0.44772 1 1s-0.44772 1-1 1-1-0.44772-1-1 0.44772-1 1-1z" opacity=".2"/>
  <path d="m22 8c-1.6569 0-3 1.3431-3 3 0 0.08738 0.02393 0.16451 0.03125 0.25l-6.75 2.8125c-0.55028-0.64728-1.3651-1.0625-2.2812-1.0625-1.6569 0-3 1.3431-3 3s1.3431 3 3 3c0.91614 0 1.731-0.41522 2.2812-1.0625l6.75 2.8125c-0.0073 0.08549-0.03125 0.16262-0.03125 0.25 0 1.6569 1.3431 3 3 3s3-1.3431 3-3-1.3431-3-3-3c-0.91614 0-1.731 0.41522-2.2812 1.0625l-6.75-2.8125c0.0073-0.08549 0.03125-0.16262 0.03125-0.25 0-0.08738-0.02393-0.16451-0.03125-0.25l6.75-2.8125c0.55028 0.64728 1.3651 1.0625 2.2812 1.0625 1.6569 0 3-1.3431 3-3s-1.3431-3-3-3zm0 2c0.55228 0 1 0.44772 1 1s-0.44772 1-1 1-1-0.44772-1-1 0.44772-1 1-1zm-12 5c0.55228 0 1 0.44772 1 1s-0.44772 1-1 1-1-0.44772-1-1 0.44772-1 1-1zm12 5c0.55228 0 1 0.44772 1 1s-0.44772 1-1 1-1-0.44772-1-1 0.44772-1 1-1z" fill="#fff"/>
  <path d="M 16,2 A 14,14 0 0 0 2,16 14,14 0 0 0 2.0214844,16.585938 14,14 0 0 1 16,3 14,14 0 0 1 29.978516,16.414062 14,14 0 0 0 30,16 14,14 0 0 0 16,2 Z" fill="#fff" opacity=".2"/>
 </g>
 <g id="slc-connect" transform="translate(0,-64)">
  <rect width="32" height="32" opacity=".001"/>
  <rect transform="matrix(0,-1,-1,0,0,0)" x="-31" y="-30" width="28" height="28" rx="2.1" ry="2.1" opacity=".2"/>
  <rect transform="matrix(0,-1,-1,0,0,0)" x="-30" y="-30" width="28" height="28" rx="2.1" ry="2.1" fill="#70c74d"/>
  <path d="m4.0996 2c-1.1634 0-2.0996 0.93619-2.0996 2.0996v1c0-1.1634 0.93619-2.0996 2.0996-2.0996h23.801c1.1634 0 2.0996 0.93619 2.0996 2.0996v-1c0-1.1634-0.93619-2.0996-2.0996-2.0996z" fill="#fff" opacity=".2"/>
  <path d="m18 9c-0.7785 0.7785-0.93671 2.1687-0.03125 3.6875l-4.25 2.8438c-0.52841-0.21321-1.0956-0.37218-1.6562-0.375-0.72876-0.0037-1.4375 0.21875-2.0625 0.84375l3 3-4 4-1 2 2-1 4-4 3 3c1.107-1.107 0.96475-2.5078 0.46875-3.7188l2.8438-4.25c1.5188 0.90546 2.909 0.74725 3.6875-0.03125z" opacity=".2"/>
  <path d="m18 8c-0.7785 0.7785-0.93671 2.1687-0.03125 3.6875l-4.25 2.8438c-0.52841-0.21321-1.0956-0.37218-1.6562-0.375-0.72876-0.0037-1.4375 0.21875-2.0625 0.84375l3 3-4 4-1 2 2-1 4-4 3 3c1.107-1.107 0.96475-2.5078 0.46875-3.7188l2.8438-4.25c1.5188 0.90546 2.909 0.74725 3.6875-0.03125z" fill="#fff"/>
 </g>
</svg>
